X:1
T: General Drummond
T: Hasting's Camp
R:Reel
Q: 232
K:G
M:4/4
L:1/8
|:d|BG G1/2G1/2G Bc dg|BG gB aA Ad|BG G1/2G1/2G Bc de|de ga bg gd|
BG G1/2G1/2G Bc dg|BG gB aA Ad|BG G1/2G1/2G Bc de|de ga bg ga|
bg fg eg dg|cg Bg aA Ad|bg fg eg dg|ef ga bg ga|
bg fg eg dg|cg Bg aA Ad|BG cA dB ge|dB cA BG G:|
